!!!COM: Victor Masse/
!!!CNT: Francais
!!!TXO: Francais
!!!OTL: Dans les Bois
!!!LYR: Ge/rard de Nerval
!!!ONM: No. 5
!!!ENC: Jacob Pegg
!!!YOR: Romantic French Song 1830-1870 -David Tunley, ed.,
!!!YOR: New York: Garland Publishing, Inc., 1995, Vol. 4
!!!ODT: 1874/
!!NB: Vocal melody and text only encoded.
!!NB: First instance of melodic material only encoded.
**kern	**silbe
*clef G2	*
*k[b-e-a-d-]	*
*M3/4	*
=14	=14
{2cc	{Au
4ee-	prin-
=15	=15
2ff	-temps
4dd-	l'oi-
=16	=16
4b-	-seau
4ee-	nai^t
4b-	et
=17	=17
(2dd-	chan-
8cc)}	-te:}
8r	.
=18	=18
{4b-	{N'a-
4cc	-vez~
4b-	~vous
=19	=19
8a-	pas
8b-	ou-
2cc	-i2
=20	=20
2.ff	sa
=21	=21
[2.ee-	voix?
=22	=22
2.ee-_	|
=23	=23
2ee-_	|
8ee-]}	|}
8r	.
=24	=24
{2dd-	{Elle
4b-	est
=25	=25
(2a-	pu-
4e-)	-re,
=26	=26
4g	sim-
4b-	-ple et
4dd-	tou-
=27	=27
(2ff	-chan-
8e-)}	-te}
8r	.
=28	=28
{4een	{La
2cc	voix
=29	=29
8ff	de
8ddn	l'ois-
2cc	-eau
=30	=30
2gg	dans
(16ddnq	|
16eenq	|
4ddn)	les
=31	=31
[2cc	bois!
8cc]}	|}
8r	.
=32	=32
{4cc	{La
2a-	voix
=33	=33
8dd-	de
8b-	l'ois-
2a-	-eau
=34	=34
2ee-;	dans
(16b-q	les
16ccq	|
4b-)	|
=35	=35
[2a-	bois!
8a-]}	|}
8r	.
!!mm36-40 rest
=41	=41
2r	.
8r	.
{8b-	{L'e/-
=42	=42
2ee-	-te/,
8r	.
8b-	l'oi-
=43	=43
4.cc	-seau
8b-	cher-
8a-	-che
8f	l'oi-
=44	=44
4cc	-sel-
[2b-	-le;
=45	=45
8b-]}	|}
8r	.
4r	.
4r	.
=46	=46
4r	.
4r	.
{4b-	{Il
=47	=47
4b-	ai-
8b-	-me
8r	.
4dd-	et
=48	=48
4.ee-	n'ai-
8dd-	-me
8ccn	qu'u-
8cc-	-ne
=49	=49
[2b-	fois!
8b-]}	|}
8r	.
=50	=50
4r	.
4r	.
4r	.
=51	=51
4r	.
2r	.
=52	=52
{2b-	{Qu'il
4ff	est
=53	=53
2ee-	doux,
4ddn	pai-
=54	=54
4cc	-sible
4b-	et
4a-	fi-
=55	=55
(2cc	-de\-
8b-)}	-le}
8r	.
=56	=56
{4cc	{Le
2ff	nid
=57	=57
8cc	de
8een	l'oi-
2ff	-seau
=58	=58
(4ee-	dans
4b-)	|
(ddnq	les
4cc)	|
=59	=59
[2b-	bois!
8b-]}	|}
8r	.
=60	=60
{2b-	{Qu'il
4ff	est
=61	=61
2ee-	doux
4ddn	pai-
=62	=62
4cc	-si-
4b-	-ble et
4a-	fi-
=63	=63
(2cc	-de\-
8b-)}	-le}
8r	.
=64	=64
{4cc	{Le
2ff	nid
=65	=65
8cc	de
8een	l'oi-
2ff	-seau
=66	=66
(4ee-	dans
4gg)	|
(16ffq	les
16ggq	|
4ff)	|
=67	=67
[2.ee-	bois!
=68	=68
8ee-]}	|}
8r	.
4r	.
4r	.
=69	=69
4r	.
2r	.
=70	=70
2r	.
4r	.
=71	=71
{[4a-	{Puis,
8a-]	|
8r	.
4cc-	quand
=72	=72
4dd-	Vient
8ee-	la
8dd-	sai-
8b-	-son
8dd-	bru-
=73	=73
2cc-	-meu-
4b-	|
=74	=74
[4a-	-se
8a-]}	|}
8r	.
{8a-	{Il
8a-	se
=75	=75
[4dd-	tait...
8dd-]	|
8r;	.
8f-	il
8f-	se
=76	=76
[4a-	tait...
8a-]	|
8r;	.
4a-	a-
=77	=77
2b-	-vant
8a-	les
8f-	temps
=78	=78
[2e-	froids.
8e-]}	|}
8r	.
=79	=79
4r	.
2r	.
=80	=80
2.r;	.
=81	=81
4r	.
{(2cc-	{He/-
ccnq)	|
=82	=82
2.ccn	-las!
=83	=83
4ee-	qu'el-
8ee-	-le
8ee-	doit
8ee-	e^tre
8ee-	heu-
=84	=84
2.ee-	-reu-
=85	=85
[4cc	-se
8cc]}	|}
8r	.
{4cc	{La
=86	=86
2cc	mort
8b-	de
8a-	l'oi-
=87	=87
2cc	-seau
8b-	dans
8a-	les
=88	=88
[2.cc	bois!
=89	=89
8cc]}	|}
8r	.
{(2ee-	{He/-
ffq)	|
=90	=90
2.ff	-las!
=91	=91
4ff	qu'el-
8ff	-le
8ff	doit
8ff	e^-
8ff	-tre heu-
=92	=92
(2ff	-reu-
4dd-)	-se
=93	=93
4gg	qu'el-
8ff	-le
8ee-	doit
8dd-	e^tre
8cc	heu-
=94	=94
2b-	-reu-
4an	|
=95	=95
[4a-	-se
8a-]}	|}
8r	.
{4cc	{La
=96	=96
2ee-	mort
8a-	de
8cc	l'oi-
=97	=97
(4ee-	-sau
4aa-;	|
4cc;)	|
=98	=98
2ee-	dans
(ggq	les
4ff)	|
=99	=99
[2.ee-	bois!
=100	=100
8ee-]}	|}
8r	.
4r	.
4r	.
*-	*-
